share/icons/Adwaita/scalable/apps/accessories-calculator-symbolic.svg

<?xml version="1.0" encoding="UTF-8"?>
<!-- Created with Inkscape (http://www.inkscape.org/) -->
<svg id="svg7384" width="16" height="16" version="1.1" xmlns="http://www.w3.org/2000/svg" xmlns:cc="http://creativecommons.org/ns#" xmlns:dc="http://purl.org/dc/elements/1.1/" xmlns:rdf="http://www.w3.org/1999/02/22-rdf-syntax-ns#">
 <metadata id="metadata90">
  <rdf:RDF>
   <cc:Work rdf:about="">
    <dc:format>image/svg+xml</dc:format>
    <dc:type rdf:resource="http://purl.org/dc/dcmitype/StillImage"/>
    <dc:title>Gnome Symbolic Icon Theme</dc:title>
   </cc:Work>
  </rdf:RDF>
 </metadata>
 <title id="title9167">Gnome Symbolic Icon Theme</title>
 <g id="layer11" transform="translate(-62,-381)">
  <g id="g11525" transform="translate(14,-17)">
   <path id="rect5122-3-5" d="m50.031 398c-0.54216 0-1 0.32904-1 0.9375v14.125c0 0.58636 0.37667 0.9375 1 0.9375h13.031c0.52007 0 0.9375-0.35114 0.9375-0.9375v-14.125c0-0.54217-0.39534-0.9375-0.9375-0.9375h-13.031zm0.96875 2.0312h11.031v2.9688h-11.031v-2.9688zm0.1875 3.9688h1.625c0.1108 0 0.1875 0.0767 0.1875 0.1875v1.625c0 0.1108-0.0767 0.1875-0.1875 0.1875h-1.625c-0.1108 0-0.1875-0.0767-0.1875-0.1875v-1.625c0-0.1108 0.0767-0.1875 0.1875-0.1875zm3 0h1.625c0.1108 0 0.1875 0.0767 0.1875 0.1875v1.625c0 0.1108-0.0767 0.1875-0.1875 0.1875h-1.625c-0.1108 0-0.1875-0.0767-0.1875-0.1875v-1.625c0-0.1108 0.0767-0.1875 0.1875-0.1875zm3 0h1.625c0.1108 0 0.1875 0.0767 0.1875 0.1875v1.625c0 0.1108-0.0767 0.1875-0.1875 0.1875h-1.625c-0.1108 0-0.1875-0.0767-0.1875-0.1875v-1.625c0-0.1108 0.0767-0.1875 0.1875-0.1875zm3 0h1.625c0.1108 0 0.1875 0.0767 0.1875 0.1875v1.625c0 0.1108-0.0767 0.1875-0.1875 0.1875h-1.625c-0.1108 0-0.1875-0.0767-0.1875-0.1875v-1.625c0-0.1108 0.0767-0.1875 0.1875-0.1875zm-9 3h1.625c0.1108 0 0.1875 0.0767 0.1875 0.1875v1.625c0 0.1108-0.0767 0.1875-0.1875 0.1875h-1.625c-0.1108 0-0.1875-0.0767-0.1875-0.1875v-1.625c0-0.1108 0.0767-0.1875 0.1875-0.1875zm3 0h1.625c0.1108 0 0.1875 0.0767 0.1875 0.1875v1.625c0 0.1108-0.0767 0.1875-0.1875 0.1875h-1.625c-0.1108 0-0.1875-0.0767-0.1875-0.1875v-1.625c0-0.1108 0.0767-0.1875 0.1875-0.1875zm3 0h1.625c0.1108 0 0.1875 0.0767 0.1875 0.1875v1.625c0 0.1108-0.0767 0.1875-0.1875 0.1875h-1.625c-0.1108 0-0.1875-0.0767-0.1875-0.1875v-1.625c0-0.1108 0.0767-0.1875 0.1875-0.1875zm3 0h1.625c0.1108 0 0.1875 0.0767 0.1875 0.1875v1.625c0 0.1108-0.0767 0.1875-0.1875 0.1875h-1.625c-0.1108 0-0.1875-0.0767-0.1875-0.1875v-1.625c0-0.1108 0.0767-0.1875 0.1875-0.1875zm-9 3h1.625c0.1108 0 0.1875 0.0767 0.1875 0.1875v1.625c0 0.1108-0.0767 0.1875-0.1875 0.1875h-1.625c-0.1108 0-0.1875-0.0767-0.1875-0.1875v-1.625c0-0.1108 0.0767-0.1875 0.1875-0.1875zm3 0h1.625c0.1108 0 0.1875 0.0767 0.1875 0.1875v1.625c0 0.1108-0.0767 0.1875-0.1875 0.1875h-1.625c-0.1108 0-0.1875-0.0767-0.1875-0.1875v-1.625c0-0.1108 0.0767-0.1875 0.1875-0.1875zm3 0h1.625c0.1108 0 0.1875 0.0767 0.1875 0.1875v1.625c0 0.1108-0.0767 0.1875-0.1875 0.1875h-1.625c-0.1108 0-0.1875-0.0767-0.1875-0.1875v-1.625c0-0.1108 0.0767-0.1875 0.1875-0.1875zm3 0h1.625c0.1108 0 0.1875 0.0767 0.1875 0.1875v1.625c0 0.1108-0.0767 0.1875-0.1875 0.1875h-1.625c-0.1108 0-0.1875-0.0767-0.1875-0.1875v-1.625c0-0.1108 0.0767-0.1875 0.1875-0.1875z" style="fill:#bebebe"/>
  </g>
 </g>
</svg>

<?xml version='1.0' encoding='UTF-8'?>
<!-- Created with Inkscape (http://www.inkscape.org/) -->

<svg xmlns:cc='http://creativecommons.org/ns#' xmlns:inkscape='http://www.inkscape.org/namespaces/inkscape' xmlns:svg='http://www.w3.org/2000/svg' id='svg7384' xmlns:sodipodi='http://sodipodi.sourceforge.net/DTD/sodipodi-0.dtd' sodipodi:docname='accessories-calculator-symbolic.svg' version='1.1' inkscape:version='0.47 r22583' height='16' xmlns:dc='http://purl.org/dc/elements/1.1/' xmlns:rdf='http://www.w3.org/1999/02/22-rdf-syntax-ns#' xmlns='http://www.w3.org/2000/svg' width='16'>
  <metadata id='metadata90'>
    <rdf:RDF>
      <cc:Work rdf:about=''>
        <dc:format>image/svg+xml</dc:format>
        <dc:type rdf:resource='http://purl.org/dc/dcmitype/StillImage'/>
        <dc:title>Gnome Symbolic Icon Theme</dc:title>
      </cc:Work>
    </rdf:RDF>
  </metadata>
  <sodipodi:namedview inkscape:cy='-346.17776' pagecolor='#555753' borderopacity='1' showborder='false' inkscape:bbox-paths='false' guidetolerance='10' inkscape:window-width='1310' showguides='true' inkscape:object-nodes='true' inkscape:snap-bbox='true' inkscape:pageshadow='2' inkscape:guide-bbox='true' inkscape:snap-nodes='true' bordercolor='#666666' objecttolerance='10' id='namedview88' showgrid='true' inkscape:window-maximized='0' inkscape:window-x='54' inkscape:snap-global='true' inkscape:window-y='24' gridtolerance='10' inkscape:window-height='690' inkscape:snap-to-guides='true' inkscape:current-layer='layer11' inkscape:zoom='8' inkscape:cx='29.912665' inkscape:snap-grids='true' inkscape:pageopacity='1'>
    <inkscape:grid spacingx='1px' spacingy='1px' id='grid4866' empspacing='2' enabled='true' type='xygrid' snapvisiblegridlinesonly='true' visible='true'/>
  </sodipodi:namedview>
  <title id='title9167'>Gnome Symbolic Icon Theme</title>
  <defs id='defs7386'/>
  <g inkscape:label='status' transform='translate(-62,-381)' inkscape:groupmode='layer' id='layer9' style='display:inline'/>
  <g inkscape:label='devices' transform='translate(-62,-381)' inkscape:groupmode='layer' id='layer10'/>
  <g inkscape:label='apps' transform='translate(-62,-381)' inkscape:groupmode='layer' id='layer11'>
    <g inkscape:label='accessories-calculator' transform='translate(14,-17)' id='g11525'>
      
      <path d='m 50.03125,398 c -0.542165,0 -1,0.32904 -1,0.9375 l 0,14.125 c 0,0.58636 0.376673,0.9375 1,0.9375 l 13.03125,0 C 63.582568,414 64,413.64886 64,413.0625 l 0,-14.125 C 64,398.39533 63.604665,398 63.0625,398 l -13.03125,0 z M 51,400.03125 l 11.03125,0 0,2.96875 L 51,403 51,400.03125 z M 51.1875,404 l 1.625,0 C 52.9233,404 53,404.0767 53,404.1875 l 0,1.625 C 53,405.9233 52.9233,406 52.8125,406 l -1.625,0 C 51.0767,406 51,405.9233 51,405.8125 l 0,-1.625 C 51,404.0767 51.0767,404 51.1875,404 z m 3,0 1.625,0 C 55.9233,404 56,404.0767 56,404.1875 l 0,1.625 C 56,405.9233 55.9233,406 55.8125,406 l -1.625,0 C 54.0767,406 54,405.9233 54,405.8125 l 0,-1.625 C 54,404.0767 54.0767,404 54.1875,404 z m 3,0 1.625,0 C 58.9233,404 59,404.0767 59,404.1875 l 0,1.625 C 59,405.9233 58.9233,406 58.8125,406 l -1.625,0 C 57.0767,406 57,405.9233 57,405.8125 l 0,-1.625 C 57,404.0767 57.0767,404 57.1875,404 z m 3,0 1.625,0 C 61.9233,404 62,404.0767 62,404.1875 l 0,1.625 C 62,405.9233 61.9233,406 61.8125,406 l -1.625,0 C 60.0767,406 60,405.9233 60,405.8125 l 0,-1.625 C 60,404.0767 60.0767,404 60.1875,404 z m -9,3 1.625,0 C 52.9233,407 53,407.0767 53,407.1875 l 0,1.625 C 53,408.9233 52.9233,409 52.8125,409 l -1.625,0 C 51.0767,409 51,408.9233 51,408.8125 l 0,-1.625 C 51,407.0767 51.0767,407 51.1875,407 z m 3,0 1.625,0 C 55.9233,407 56,407.0767 56,407.1875 l 0,1.625 C 56,408.9233 55.9233,409 55.8125,409 l -1.625,0 C 54.0767,409 54,408.9233 54,408.8125 l 0,-1.625 C 54,407.0767 54.0767,407 54.1875,407 z m 3,0 1.625,0 C 58.9233,407 59,407.0767 59,407.1875 l 0,1.625 C 59,408.9233 58.9233,409 58.8125,409 l -1.625,0 C 57.0767,409 57,408.9233 57,408.8125 l 0,-1.625 C 57,407.0767 57.0767,407 57.1875,407 z m 3,0 1.625,0 C 61.9233,407 62,407.0767 62,407.1875 l 0,1.625 C 62,408.9233 61.9233,409 61.8125,409 l -1.625,0 C 60.0767,409 60,408.9233 60,408.8125 l 0,-1.625 C 60,407.0767 60.0767,407 60.1875,407 z m -9,3 1.625,0 C 52.9233,410 53,410.0767 53,410.1875 l 0,1.625 C 53,411.9233 52.9233,412 52.8125,412 l -1.625,0 C 51.0767,412 51,411.9233 51,411.8125 l 0,-1.625 C 51,410.0767 51.0767,410 51.1875,410 z m 3,0 1.625,0 C 55.9233,410 56,410.0767 56,410.1875 l 0,1.625 C 56,411.9233 55.9233,412 55.8125,412 l -1.625,0 C 54.0767,412 54,411.9233 54,411.8125 l 0,-1.625 C 54,410.0767 54.0767,410 54.1875,410 z m 3,0 1.625,0 C 58.9233,410 59,410.0767 59,410.1875 l 0,1.625 C 59,411.9233 58.9233,412 58.8125,412 l -1.625,0 C 57.0767,412 57,411.9233 57,411.8125 l 0,-1.625 C 57,410.0767 57.0767,410 57.1875,410 z m 3,0 1.625,0 C 61.9233,410 62,410.0767 62,410.1875 l 0,1.625 C 62,411.9233 61.9233,412 61.8125,412 l -1.625,0 C 60.0767,412 60,411.9233 60,411.8125 l 0,-1.625 C 60,410.0767 60.0767,410 60.1875,410 z' id='rect5122-3-5' style='fill:#bebebe;fill-opacity:1;stroke:none;display:inline'/>
    </g>
  </g>
  <g inkscape:label='actions' transform='translate(-62,-381)' inkscape:groupmode='layer' id='layer12'/>
  <g inkscape:label='places' transform='translate(-62,-381)' inkscape:groupmode='layer' id='layer13'/>
  <g inkscape:label='mimetypes' transform='translate(-62,-381)' inkscape:groupmode='layer' id='layer14'/>
  <g inkscape:label='emblems' transform='translate(-62,-381)' inkscape:groupmode='layer' id='layer15'/>
</svg>
